!!!OTL: Down by the Bay
!!!COM: unknown
!!!ODT: unknown
!!!YOR: The Book of Echo Songs
!!!YOY: 1997
!!!AST: Children's song
!!!YEC: Brian Luke, 2001
**kern	**harm
*k[f#]	*k[f#]
*M2/4	*M2/4
*G:	*G:
*>A	*>A
8d	.
8e	.
8d	.
=1	=1
8g	I
4.r	.
=2	=2
8r	.
16d	.
16d	.
16e	.
16e	.
16d	.
16d	.
=3	=3
8f#	V
4.r	.
=4	=4
8r	.
8d	.
8e	.
8d	.
=5	=5
8f#	.
4.r	.
=6	=6
8r	.
8d	.
8e	.
8f#	.
=7	=7
8g	I
4.r	.
=8	=8
8r	.
8g	.
8f#	.
8f	.
=9	=9
8e	IV
4.r	.
=10	=10
8r	.
8g	.
16f#	.
16f#	.
8e	.
=11	=11
8d	I
4.r	.
=12	=12
4.r	.
16g	.
16a	.
=13	=13
16b	.
16a#	.
16b	.
16a#	.
4b	.
=14	=14
16b	.
8b	.
16a#	.
4b	.
=15	=15
8b	.
4b	.
.	V7
8a	.
=16	=16
8g	I;
*-	*-
